X: 19200
T: Island Of Woods, The
R: reel
M: 4/4
K: Gmajor
gf|e3d d3e|d3e dBgf|e3d e3d|e2ef ed g/a/b|
c'3b aeac'|b2ag g2fd|g2fd cdBG|1 A4Ad:|2 A4AA||
B/c/d|eddB A3G|ABAG G2 B/c/d|egdg cGBG|A4AA B/c/d|
eddB A3G|ABAG G2 B/c/d|cdBG ADGF|D4DD||

